src/components/00-materials/images-raw/Inflammable Liquid.svg

<svg width="96" height="96" viewBox="0 0 96 96" fill="none" xmlns="http://www.w3.org/2000/svg">
<path d="M50.63 25.61C50.8344 25.287 50.942 24.9122 50.94 24.53V23.45C51.2933 23.2844 51.592 23.0214 51.801 22.6919C52.01 22.3625 52.1207 21.9802 52.12 21.59V13.06C52.1174 12.5145 51.8995 11.992 51.5137 11.6063C51.128 11.2205 50.6055 11.0026 50.06 11H45.94C45.3944 11.0026 44.872 11.2205 44.4862 11.6063C44.1005 11.992 43.8826 12.5145 43.88 13.06V21.59C43.8793 21.9802 43.9899 22.3625 44.1989 22.6919C44.408 23.0214 44.7067 23.2844 45.06 23.45V24.53C45.058 24.9122 45.1656 25.287 45.37 25.61C36.21 25.9 29.17 27.94 29.17 35.88V80.5C29.17 82.98 32.35 85 36.23 85H59.77C63.65 85 66.83 83 66.83 80.5V35.88C66.83 27.94 59.79 25.9 50.63 25.61V25.61Z" stroke="#00008F" stroke-width="2" stroke-linecap="round" stroke-linejoin="round"/>
<path d="M46.54 73.41C44.78 72.23 43 69.88 43 65.17C42.9661 61.4148 44.2427 57.7653 46.61 54.85C46.61 54.85 46.33 64.3 48.88 65.17C51.24 65.76 50.06 59.29 50.06 59.29C51.2648 59.8987 52.2833 60.8208 53.0083 61.9594C53.7333 63.0979 54.1381 64.4109 54.18 65.76C54.09 68.54 53.59 71.05 51.24 73.41C57.71 73.41 61.24 64.56 61.24 56.93C61.24 56.93 58.89 61.64 57.71 60.46C56.53 59.28 58.89 56.93 58.89 53.4C58.7992 50.3895 57.6114 47.516 55.55 45.32C56.55 50.73 50.65 54.58 50.65 54.58C50.65 54.58 53.6 43.4 46.27 37.52C47.72 46.93 42.62 46.97 41.69 52.52C39.9689 50.8836 38.9507 48.6427 38.85 46.27C33.01 52.83 40.66 65.77 38.3 64.59C37.13 64 36 62.82 34.77 60.46C34.22 70.46 44.19 73.41 46.54 73.41" stroke="#00008F" stroke-width="2" stroke-linecap="round" stroke-linejoin="round"/>
</svg>

<svg width="96" height="96" viewBox="0 0 96 96" fill="none" xmlns="http://www.w3.org/2000/svg"><path d="M50.63 25.61a2 2 0 00.31-1.08v-1.08a2.05 2.05 0 001.18-1.86v-8.53A2.07 2.07 0 0050.06 11h-4.12a2.07 2.07 0 00-2.06 2.06v8.53a2.05 2.05 0 001.18 1.86v1.08a2 2 0 00.31 1.08c-9.16.29-16.2 2.33-16.2 10.27V80.5c0 2.48 3.18 4.5 7.06 4.5h23.54c3.88 0 7.06-2 7.06-4.5V35.88c0-7.94-7.04-9.98-16.2-10.27v0z" stroke="#00008F" stroke-width="2" stroke-linecap="round" stroke-linejoin="round"/><path d="M46.54 73.41C44.78 72.23 43 69.88 43 65.17a16.14 16.14 0 013.61-10.32s-.28 9.45 2.27 10.32c2.36.59 1.18-5.88 1.18-5.88a7.51 7.51 0 014.12 6.47c-.09 2.78-.59 5.29-2.94 7.65 6.47 0 10-8.85 10-16.48 0 0-2.35 4.71-3.53 3.53-1.18-1.18 1.18-3.53 1.18-7.06a12.35 12.35 0 00-3.34-8.08c1 5.41-4.9 9.26-4.9 9.26s2.95-11.18-4.38-17.06c1.45 9.41-3.65 9.45-4.58 15a9.16 9.16 0 01-2.84-6.25c-5.84 6.56 1.81 19.5-.55 18.32-1.17-.59-2.3-1.77-3.53-4.13-.55 10 9.42 12.95 11.77 12.95" stroke="#00008F" stroke-width="2" stroke-linecap="round" stroke-linejoin="round"/></svg>
